KINDER
CUT[RINGEL RINGEL ROSENKRANZ]
REG[Europa, Mitteleuropa, Deutschland, Darmstadt]
KEY[K2072  16  F 2/4]
MEL[  5_5_6_6_  5_5_3__
    5_5_3__  5_5_3__
    5_5_3__  555_3__
    5_5_5_5_  +1__0__ //] >>
FCT[Kinder - Lied, Reigen, Tanz - Spiel]
